femmes/public/img/illustrations/slide8/green-hat.svg

<?xml version="1.0" encoding="UTF-8" standalone="no"?>
<svg
   width="211"
   height="196"
   viewBox="0 0 211 196"
   fill="none"
   version="1.1"
   id="svg100"
   sodipodi:docname="green-hat.svg"
   inkscape:version="1.1.2 (0a00cf5339, 2022-02-04)"
   xmlns:inkscape="http://www.inkscape.org/namespaces/inkscape"
   xmlns:sodipodi="http://sodipodi.sourceforge.net/DTD/sodipodi-0.dtd"
   xmlns="http://www.w3.org/2000/svg"
   xmlns:svg="http://www.w3.org/2000/svg">
  <defs
     id="defs104" />
  <sodipodi:namedview
     id="namedview102"
     pagecolor="#ffffff"
     bordercolor="#666666"
     borderopacity="1.0"
     inkscape:pageshadow="2"
     inkscape:pageopacity="0.0"
     inkscape:pagecheckerboard="0"
     showgrid="false"
     inkscape:zoom="1.5876904"
     inkscape:cx="166.59419"
     inkscape:cy="167.53896"
     inkscape:window-width="1916"
     inkscape:window-height="1053"
     inkscape:window-x="0"
     inkscape:window-y="0"
     inkscape:window-maximized="1"
     inkscape:current-layer="svg100" />
  <path
     d="m 1.0272,120.789 c 3.5526,16.021 42.3717,40.256 82.1508,58.302"
     stroke="#49b170"
     stroke-width="3"
     id="path81" />
  <path
     d="M 77.168,40.664 C 21.9557,-7.7889 13.1769,-2.72 2.1321,5.323 c -12.4213,9.23 27.9003,27.504 30.5669,44.916 0,0 0.6314,2.807 -4.1738,29.164 -4.5822,25.131 8.592,33.215 14.4399,38.311 20.2639,17.658 110.0649,76.553 123.7199,77.633 20.349,-15.229 64.21,-59.831 33.363,-117.575 C 168.396,18.523 114.181,28.58 77.168,40.664 Z"
     fill="#49b170"
     id="path83" />
  <mask
     id="mask0_384_367"
     maskUnits="userSpaceOnUse"
     x="51"
     y="102"
     width="212"
     height="196">
    <path
       d="M 129.168,142.664 C 73.9557,94.2111 65.1769,99.28 54.1321,107.323 c -12.4213,9.23 27.9003,27.504 30.5669,44.916 0,0 0.6314,2.807 -4.1738,29.164 -4.5822,25.131 8.592,33.215 14.4399,38.311 20.2639,17.658 110.0649,76.553 123.7199,77.633 20.349,-15.229 64.21,-59.831 33.363,-117.575 -31.652,-59.249 -85.867,-49.192 -122.88,-37.108 z"
       fill="#ffffff"
       id="path85" />
  </mask>
  <g
     mask="url(#mask0_384_367)"
     id="g96"
     transform="translate(-52,-102)">
    <path
       fill-rule="evenodd"
       clip-rule="evenodd"
       d="m 243.611,167.05 c 19.546,36.706 5.641,82.335 -31.089,101.957 l -21.314,11.386 1.362,2.549 21.314,-11.386 c 38.17,-20.391 52.6,-67.83 32.231,-105.959 l -0.048,-0.09 -57.81,-78.9121 -2.335,1.7093 z"
       fill="#000000"
       id="path88" />
    <path
       fill-rule="evenodd"
       clip-rule="evenodd"
       d="M 159.624,28.6187 133.445,114.68 c -24.42,80.28 20.884,165.086 101.19,189.42 l 74.493,22.573 0.841,-2.766 -74.492,-22.573 C 156.699,277.462 112.257,194.27 136.213,115.519 l 26.179,-86.0616 z"
       fill="#000000"
       id="path90" />
    <path
       fill-rule="evenodd"
       clip-rule="evenodd"
       d="m 322.041,192.943 -82.718,-34.266 c -37.535,-15.549 -77.764,-14.868 -112.87,-1.188 l 1.049,2.693 c 34.438,-13.419 73.893,-14.086 110.711,1.166 l 82.719,34.266 z"
       fill="#000000"
       id="path92" />
    <path
       fill-rule="evenodd"
       clip-rule="evenodd"
       d="m 52.7842,105.293 c -0.0014,0 -0.0026,0 0.2416,1.425 0.2442,1.424 0.2426,1.425 0.2426,1.425 l 9e-4,-0.001 0.0148,-0.002 c 0.0148,-0.002 0.0398,-0.006 0.0745,-0.011 0.0694,-0.01 0.1775,-0.025 0.3215,-0.043 0.2879,-0.034 0.7184,-0.077 1.2675,-0.109 1.0994,-0.063 2.667,-0.08 4.5139,0.11 3.7004,0.38 8.4628,1.582 12.8427,4.84 8.6483,6.433 16.4481,21.422 10.2948,56.334 -4.3559,24.712 -3.5404,35.663 0.0029,42.227 1.7823,3.302 4.2053,5.392 6.6429,7.457 0.0722,0.062 0.1444,0.123 0.2167,0.184 2.3813,2.017 4.8257,4.087 7.142,7.384 l 2.3681,-1.662 c -2.5327,-3.606 -5.222,-5.883 -7.5935,-7.89 -0.0876,-0.074 -0.1747,-0.148 -0.2614,-0.222 -2.446,-2.072 -4.4728,-3.855 -5.9687,-6.626 -3.0129,-5.581 -4.0667,-15.58 0.2999,-40.353 6.2302,-35.348 -1.4688,-51.755 -11.4152,-59.153 -4.9175,-3.658 -10.2264,-4.981 -14.2729,-5.396 -2.0267,-0.208 -3.7514,-0.191 -4.9761,-0.12 -0.6129,0.035 -1.1024,0.084 -1.4438,0.125 -0.1708,0.02 -0.3047,0.038 -0.3988,0.052 -0.047,0.007 -0.084,0.013 -0.1107,0.017 l -0.0323,0.005 -0.0103,0.002 z"
       fill="#000000"
       id="path94" />
  </g>
  <path
     d="m 9.2389,44.94 c 8.6579,7.661 2.3887,30.284 1.9909,52.704 -0.4558,25.693 19.0726,36.652 50.9002,55.991"
     stroke="#49b170"
     stroke-width="3"
     id="path98" />
</svg>

<svg width="356" height="375" viewBox="0 0 356 375" fill="none" xmlns="http://www.w3.org/2000/svg">
<path d="M53.0272 222.789C56.5798 238.81 95.3989 263.045 135.178 281.091" stroke="#49B170" stroke-width="3"/>
<path d="M129.168 142.664C73.9557 94.2111 65.1769 99.28 54.1321 107.323C41.7108 116.553 82.0324 134.827 84.699 152.239C84.699 152.239 85.3304 155.046 80.5252 181.403C75.943 206.534 89.1172 214.618 94.9651 219.714C115.229 237.372 205.03 296.267 218.685 297.347C239.034 282.118 282.895 237.516 252.048 179.772C220.396 120.523 166.181 130.58 129.168 142.664Z" fill="#49B170"/>
<mask id="mask0_384_367" style="mask-type:luminance" maskUnits="userSpaceOnUse" x="51" y="102" width="212" height="196">
<path d="M129.168 142.664C73.9557 94.2111 65.1769 99.28 54.1321 107.323C41.7108 116.553 82.0324 134.827 84.699 152.239C84.699 152.239 85.3304 155.046 80.5252 181.403C75.943 206.534 89.1172 214.618 94.9651 219.714C115.229 237.372 205.03 296.267 218.685 297.347C239.034 282.118 282.895 237.516 252.048 179.772C220.396 120.523 166.181 130.58 129.168 142.664Z" fill="white"/>
</mask>
<g mask="url(#mask0_384_367)">
<path fill-rule="evenodd" clip-rule="evenodd" d="M243.611 167.05C263.157 203.756 249.252 249.385 212.522 269.007L191.208 280.393L192.57 282.942L213.884 271.556C252.054 251.165 266.484 203.726 246.115 165.597L246.067 165.507L188.257 86.5949L185.922 88.3042L243.611 167.05Z" fill="black"/>
<path fill-rule="evenodd" clip-rule="evenodd" d="M159.624 28.6187L133.445 114.68C109.025 194.96 154.329 279.766 234.635 304.1L309.128 326.673L309.969 323.907L235.477 301.334C156.699 277.462 112.257 194.27 136.213 115.519L162.392 29.4574L159.624 28.6187Z" fill="black"/>
<path fill-rule="evenodd" clip-rule="evenodd" d="M322.041 192.943L239.323 158.677C201.788 143.128 161.559 143.809 126.453 157.489L127.502 160.182C161.94 146.763 201.395 146.096 238.213 161.348L320.932 195.614L322.041 192.943Z" fill="black"/>
<path fill-rule="evenodd" clip-rule="evenodd" d="M52.7842 105.293C52.7828 105.293 52.7816 105.293 53.0258 106.718C53.27 108.142 53.2684 108.143 53.2684 108.143L53.2693 108.142L53.2841 108.14C53.2989 108.138 53.3239 108.134 53.3586 108.129C53.428 108.119 53.5361 108.104 53.6801 108.086C53.968 108.052 54.3985 108.009 54.9476 107.977C56.047 107.914 57.6146 107.897 59.4615 108.087C63.1619 108.467 67.9243 109.669 72.3042 112.927C80.9525 119.36 88.7523 134.349 82.599 169.261C78.2431 193.973 79.0586 204.924 82.6019 211.488C84.3842 214.79 86.8072 216.88 89.2448 218.945C89.317 219.007 89.3892 219.068 89.4615 219.129C91.8428 221.146 94.2872 223.216 96.6035 226.513L98.9716 224.851C96.4389 221.245 93.7496 218.968 91.3781 216.961C91.2905 216.887 91.2034 216.813 91.1167 216.739C88.6707 214.667 86.6439 212.884 85.148 210.113C82.1351 204.532 81.0813 194.533 85.4479 169.76C91.6781 134.412 83.9791 118.005 74.0327 110.607C69.1152 106.949 63.8063 105.626 59.7598 105.211C57.7331 105.003 56.0084 105.02 54.7837 105.091C54.1708 105.126 53.6813 105.175 53.3399 105.216C53.1691 105.236 53.0352 105.254 52.9411 105.268C52.8941 105.275 52.8571 105.281 52.8304 105.285L52.7981 105.29L52.7878 105.292L52.7842 105.293Z" fill="black"/>
</g>
<path d="M61.2389 146.94C69.8968 154.601 63.6276 177.224 63.2298 199.644C62.774 225.337 82.3024 236.296 114.13 255.635" stroke="#49B170" stroke-width="3"/>
</svg>
